X:1
T:Day of Rest, 76.76 D
T:Day of Rest, 76.76 D
T:James William Elliott, 1874
T:Public Domain Courtesy of the Cyber Hymnal™
C:James William Elliott, 1874
Z:Public Domain
Z:Courtesy of the Cyber Hymnal™
%%score ( 1 2 ) ( 3 4 )
L:1/8
Q:1/4=107
M:4/4
K:F
V:1 treble 
V:2 treble 
V:3 bass 
V:4 bass 
V:1
 F2 | [FA]2 [Ac]2 [_Ad]2 (c=B) | [Ac]4 [FA]2 [EG]2 | F2 (GA) [FB]2 [Fd]2 | [EG]6 [EG]2 | %5
 [FA]2 [FA]2 [G=B]2 (AG) | [Cc]4 [CE]2 [CF]2 | [CG]2 [Ec]2 [Fd]3 [Ge] | [Ec]6 [Cc]2 | %9
 [CB]2 [CA]2 [CG]2 [CB]2 | ([CA]2 [EG]2) F2 [^Fc]2 | [GB]2 [_EA]2 [DG]2 [D^F]2 | [DG]6 (GA) | %13
 B2 F2 E2 F2 | (G3 A) G2 [FA]2 | [FB]2 (cd) [FA]2 [EG]2 | F6 |] %17
V:2
 F2 | x6 _A2 | x8 | F2 F2 x4 | x8 | x6 D2 | x8 | x8 | x8 | x8 | x4 ^F2 x2 | x8 | x6 GA | B2 B,6- | %14
 [B,C]6 x2 | x2 F2 x4 | F6 |] %17
V:3
 [F,A,]2 | [F,C]2 [F,F]2 [F,=B,]2 (CD) | [F,C]4 [F,C]2 [C,B,]2 | [D,A,]2 (G,F,) [G,,D]2 [G,,B,]2 | %4
 [C,G,]6 [C,C]2 | [F,C]2 [F,C]2 [F,D]2 (C=B,) | (C2 G,2) [A,,G,]2 [A,,F,]2 | %7
 [G,,E,]2 [G,,G,]2 [G,,A,]2 [G,=B,]2 | [C,C]6 [C,A,]2 | [C,G,]2 [C,F,]2 [C,E,]2 ([D,F,][E,G,]) | %10
 ([F,A,]2 [G,B,]2) [A,C]2 [A,,C]2 | [B,,D]2 [C,C]2 [D,B,]2 [D,A,]2 | [G,,B,]6 G,A, | %13
 B,2 [_D,F,]2 [C,E,]2 [=D,F,]2 | ([E,G,]3 [F,A,]) [E,G,]2 [F,C]2 | %15
 [D,B,]2 ([C,A,][B,,G,]) [C,C]2 [C,B,]2 | [F,A,]6 |] %17
V:4
 x2 | x6 F,2 | x8 | x2 D,2 x4 | x8 | x6 F,2 | E,4 x4 | x8 | x8 | x8 | x8 | x8 | x6 (G,A,) | %13
 B,2 x6 | x8 | x8 | x6 |] %17

